!!!!SEGMENT: pl-kk--kk-i-7--114_miskiewicz-maciej-arnulf--jesu-dulcis-memoria.krn
!!!cenid: 16xx:953
!!!COM: Miskiewicz, Maciej Arnulf
!!!COM-rismid: pe30105639
!!!CDT: <1685->1685
!!!CNT: Polish
!!!OTL: Jesu dulcis memoria
!!!PDT: 1668
!!!AGN: Sacred
!!!SMS-siglum: PL-Kk
!!!SMS-shelfmark: Kk.I.7
!!!SMS-shelfwork: 114 W
!!!SMS-variant:
!!!SMS-altvar:
!!!NIFC-rismid: 300258191
!!!URL-scan: http://repozytorium.nifc.pl/skany/pl-kk-nut--i-7
!!!ONB-nifc: UWAGA: C (skan 0084, s.160-161), A (0162, s.144-145), T(0249, s.160-161), B(0336, s.156-157). Następny utwór: Pange lingua
**kern	**text	**text	**text	**text	**text	**text	**kern	**text	**text	**text	**text	**text	**text	**kern	**text	**text	**text	**text	**text	**text	**kern	**text	**text	**text	**text	**text	**text
*part4	*part4	*part4	*part4	*part4	*part4	*part4	*part3	*part3	*part3	*part3	*part3	*part3	*part3	*part2	*part2	*part2	*part2	*part2	*part2	*part2	*part1	*part1	*part1	*part1	*part1	*part1	*part1
*staff4	*staff4	*staff4	*staff4	*staff4	*staff4	*staff4	*staff3	*staff3	*staff3	*staff3	*staff3	*staff3	*staff3	*staff2	*staff2	*staff2	*staff2	*staff2	*staff2	*staff2	*staff1	*staff1	*staff1	*staff1	*staff1	*staff1	*staff1
*Ibass	*	*	*	*	*	*	*Itenor	*	*	*	*	*	*	*Ialto	*	*	*	*	*	*	*Ivox	*	*	*	*	*	*
*I"[BASSVS.]	*	*	*	*	*	*	*I"[TENOR.]	*	*	*	*	*	*	*I"[ALTVS.]	*	*	*	*	*	*	*I"[CANTVS.]	*	*	*	*	*	*
*I'[B]	*	*	*	*	*	*	*I'[T]	*	*	*	*	*	*	*I'[A]	*	*	*	*	*	*	*I'[C]	*	*	*	*	*	*
*clefF4	*	*	*	*	*	*	*clefC4	*	*	*	*	*	*	*clefC3	*	*	*	*	*	*	*clefC4	*	*	*	*	*	*
*k[]	*	*	*	*	*	*	*k[]	*	*	*	*	*	*	*k[]	*	*	*	*	*	*	*k[]	*	*	*	*	*	*
*C:	*	*	*	*	*	*	*C:	*	*	*	*	*	*	*C:	*	*	*	*	*	*	*C:	*	*	*	*	*	*
*M3/1	*	*	*	*	*	*	*M3/1	*	*	*	*	*	*	*M3/1	*	*	*	*	*	*	*M3/1	*	*	*	*	*	*
*	*	*	*	*	*	*	*met(O|)	*	*	*	*	*	*	*met(O|)	*	*	*	*	*	*	*met(O|)	*	*	*	*	*	*
=1-	=1-	=1-	=1-	=1-	=1-	=1-	=1-	=1-	=1-	=1-	=1-	=1-	=1-	=1-	=1-	=1-	=1-	=1-	=1-	=1-	=1-	=1-	=1-	=1-	=1-	=1-	=1-
!!LO:TX:t=P:problem:all\right:global!LO:TX:t=P:problem:kreska pseudotaktowa	!	!	!	!	!	!	!	!	!	!	!	!	!	!	!	!	!	!	!	!	!	!	!	!	!	!	!
!LO:TX:t=P:problem:przed kluczem inicjał J	!	!	!	!	!	!	!LO:TX:t=P:problem:przed kluczem inicjał J	!	!	!	!	!	!	!LO:TX:t=P:problem:przed kluczem inicjał J	!	!	!	!	!	!	!LO:TX:t=P:problem:przed kluczem inicjał J	!	!	!	!	!	!
0C	JE-	Nil	Nec	Je-	Je-	Ma-	0.c	JE-	Nil	Nec	Je-	Je-	Ma-	0e	JE-	Nil	Nec	Je-	Je-	Ma-	0G	JE-	Nil	Nec	Je-	Je-	Ma-
!	!	!	!	!	!	!	!	!	!	!	!	!	!	!LO:TX:t=P:problem:kreska pseudotaktowa	!	!	!	!	!	!	!LO:TX:t=P:problem:kreska pseudotaktowa	!	!	!	!	!	!
1C	-Su	ca-	lin-	-ſu	-ſu	-ne	.	.	.	.	.	.	.	1e	-SV	ca-	lin-	-ſu	-ſu	-ne	1G	-Su	ca-	lin-	-ſu	-ſu	-ne
=2-	=2-	=2-	=2-	=2-	=2-	=2-	=2-	=2-	=2-	=2-	=2-	=2-	=2-	=2-	=2-	=2-	=2-	=2-	=2-	=2-	=2-	=2-	=2-	=2-	=2-	=2-	=2-
!	!	!	!	!	!	!	!LO:TX:t=P:problem:kreska pseudotaktowa	!	!	!	!	!	!	!	!	!	!	!	!	!	!	!	!	!	!	!	!
0F	dul-	-ni-	-gua	ſpes	dul-	no-	0.A	-Su	ca-	lin-	-ſu	-ſu	-ne	0c	dul-	-ni-	-gua	ſpes	dul-	no-	0F	dul-	-ni-	-gua	ſpes	dul-	no-
!	!	!	!	!	!	!	!	!	!	!	!	!	!	!LO:SIC:v:l:s=poe-:verse 4	!	!	!	!	!	!	!	!	!	!	!	!	!
!LO:SIC:v:l:s=poe-:verse 4	!	!	!	!	!	!	!	!	!	!	!	!	!	!LO:TX:t=P:problem:kreska pseudotaktowa	!	!	!	!	!	!	!LO:SIC:v:l:s=poe-:verse 4	!	!	!	!	!	!
1A	-cis	-tur	Va-	pae-	-ce-	-bis-	.	.	.	.	.	.	.	1c	-cis	-tur	Va-	pae-	-ce-	-bis-	1E	-cis	-tur	Va-	pae-	-ce-	-bis-
=3-	=3-	=3-	=3-	=3-	=3-	=3-	=3-	=3-	=3-	=3-	=3-	=3-	=3-	=3-	=3-	=3-	=3-	=3-	=3-	=3-	=3-	=3-	=3-	=3-	=3-	=3-	=3-
!LO:TX:t=P:problem:kreska pseudotaktowa	!	!	!	!	!	!	!	!	!	!	!	!	!	!LO:SIC:v:l:s=su-:verse 2	!	!	!	!	!	!	!	!	!	!	!	!	!
0.G	me-	ſu-	-let	-ni-	-do	-cum	0B	dul-	-ni-	-gua	ſpes	dul-	no-	1.d	me-	iu-	-let	-ni-	-do	-cum	1.G	me-	ſu-	-let	-ni-	-do	-cum
.	.	.	.	.	.	.	.	.	.	.	.	.	.	2c/	.	.	.	.	.	.	2A/	.	.	.	.	.	.
*	*	*	*	*	*	*	*	*	*	*	*	*	*	*2\right	*	*	*	*	*	*	*	*	*	*	*	*	*
!	!	!	!	!	!	!	!LO:SIC:v:l:s=poe-:verse 4	!	!	!	!	!	!	!	!	!	!	!	!	!	!LO:TX:t=P:problem:kreska pseudotaktowa	!	!	!	!	!	!
.	.	.	.	.	.	.	1G	-cis	-tur	Va-	pae-	-ce-	-bis-	2d\	.	.	.	.	.	.	1B	.	.	.	.	.	.
!	!	!	!	!	!	!	!	!	!	!	!	!	!	!LO:TX:t=P:problem:kreska pseudotaktowa	!	!	!	!	!	!	!	!	!	!	!	!	!
.	.	.	.	.	.	.	.	.	.	.	.	.	.	2e\	.	.	.	.	.	.	.	.	.	.	.	.	.
=4-	=4-	=4-	=4-	=4-	=4-	=4-	=4-	=4-	=4-	=4-	=4-	=4-	=4-	=4-	=4-	=4-	=4-	=4-	=4-	=4-	=4-	=4-	=4-	=4-	=4-	=4-	=4-
!	!	!	!	!	!	!	!	!	!	!	!	!	!	!LO:SIC:v:l:s=-a-:verse 2	!	!	!	!	!	!	!	!	!	!	!	!	!
1.F	-mo-	-a-	di-	-ten-	cor-	Do-	1.c	me-	ſu-	-let	-ni-	-do	-cum	0f	-mo-	-cun-	di-	-ten-	cor-	Do-	2A/	-mo-	-a-	di-	-ten-	cor-	Do-
.	.	.	.	.	.	.	.	.	.	.	.	.	.	.	.	.	.	.	.	.	2G/	.	.	.	.	.	.
.	.	.	.	.	.	.	.	.	.	.	.	.	.	.	.	.	.	.	.	.	2A/	.	.	.	.	.	.
*	*	*	*	*	*	*	*2\right	*	*	*	*	*	*	*	*	*	*	*	*	*	*2\right	*	*	*	*	*	*
4E\	.	.	.	.	.	.	2d\	.	.	.	.	.	.	.	.	.	.	.	.	.	2B\	.	.	.	.	.	.
4D/	.	.	.	.	.	.	.	.	.	.	.	.	.	.	.	.	.	.	.	.	.	.	.	.	.	.	.
*	*	*	*	*	*	*	*	*	*	*	*	*	*	*	*	*	*	*	*	*	*col	*	*	*	*	*	*
!LO:TX:t=P:problem:kreska pseudotaktowa	!	!	!	!	!	!	!LO:TX:t=P:problem:kreska pseudotaktowa	!	!	!	!	!	!	!	!	!	!	!	!	!	!	!	!	!	!	!	!
1C	.	.	.	.	.	.	1e	.	.	.	.	.	.	1g	.	.	.	.	.	.	0c	.	.	.	.	.	.
=5-	=5-	=5-	=5-	=5-	=5-	=5-	=5-	=5-	=5-	=5-	=5-	=5-	=5-	=5-	=5-	=5-	=5-	=5-	=5-	=5-	=5-	=5-	=5-	=5-	=5-	=5-	=5-
0G	.	.	.	.	.	.	0d	-mo-	-a-	di-	-ten-	cor-	Do-	0g	.	.	.	.	.	.	.	.	.	.	.	.	.
.	.	.	.	.	.	.	.	.	.	.	.	.	.	.	.	.	.	.	.	.	1.B	.	.	.	.	.	.
!	!	!	!	!	!	!	!	!	!	!	!	!	!	!LO:SIC:v:l:s=-vi-verse 2	!	!	!	!	!	!	!	!	!	!	!	!	!
!	!	!	!	!	!	!	!	!	!	!	!	!	!	!LO:TX:t=P:problem:kreska pseudotaktowa	!	!	!	!	!	!	!	!	!	!	!	!	!
1G	-ri-	-ui-	-ce-	-ti-	-di-	-mi-	1d	-ri-	-ui-	-ce-	-ti-	-di-	-mi-	1g	-ri-	-di-	-ce-	-ti-	-di-	-mi-	.	.	.	.	.	.	.
!	!	!	!	!	!	!	!	!	!	!	!	!	!	!	!	!	!	!	!	!	!LO:TX:t=P:problem:kreska pseudotaktowa	!	!	!	!	!	!
.	.	.	.	.	.	.	.	.	.	.	.	.	.	.	.	.	.	.	.	.	2B\	-ri-	-ui-	-ce-	-ti-	-di-	-mi-
*	*	*	*	*	*	*	*	*	*	*	*	*	*	*	*	*	*	*	*	*	*Xcol	*	*	*	*	*	*
=6-	=6-	=6-	=6-	=6-	=6-	=6-	=6-	=6-	=6-	=6-	=6-	=6-	=6-	=6-	=6-	=6-	=6-	=6-	=6-	=6-	=6-	=6-	=6-	=6-	=6-	=6-	=6-
!	!	!	!	!	!	!	!	!	!	!	!	!	!	!LO:SIC:v:l:s=-us:verse 2	!	!	!	!	!	!	!	!	!	!	!	!	!
0C	-a	-us	-re	-bus	-um	-ne	0c	-a	-us	-re	-bus	-um	-ne	0e,<	-a	-us	-re	-bus	-(um)	-ne	0c,<	-a	-us	-re	-bus	-um	-ne
!LO:TX:t=P:problem:kreska pseudotaktowa	!	!	!	!	!	!	!LO:TX:t=P:problem:kreska pseudotaktowa	!	!	!	!	!	!	!LO:TX:t=P:problem:kreska pseudotaktowa	!	!	!	!	!	!	!LO:TX:t=P:problem:kreska pseudotaktowa	!	!	!	!	!	!
1C	dans	Au-	Nec	Quam	Fons	Et	1e	Dans	Au-	Nec	Quam	Fons	Et	1g	Dans	Au-	Nec	Quam	Fons	Et	1c	Dans	Au-	Nec	Quam	Fons	Et
=7-	=7-	=7-	=7-	=7-	=7-	=7-	=7-	=7-	=7-	=7-	=7-	=7-	=7-	=7-	=7-	=7-	=7-	=7-	=7-	=7-	=7-	=7-	=7-	=7-	=7-	=7-	=7-
!	!	!	!	!	!	!	!LO:SIC:v:l:s=lit-verse 3	!	!	!	!	!	!	!	!	!	!	!	!	!	!	!	!	!	!	!	!
!	!	!	!	!	!	!	!	!	!	!	!	!	!	!	!	!	!	!	!	!	!LO:SIC:v:l:s=lit-verse 3	!	!	!	!	!	!
(2C/	Ve-	-di-	lit-	pi-	Vi-	nos	0e	Ve-	-di-	li-	pi-	Vi-	nos	0g	Ve-	-di-	lit-	pi-	Vi-	nos	0c	Ve-	-di-	li-	pi-	Vi-	nos
2D/)	.	.	.	.	.	.	.	.	.	.	.	.	.	.	.	.	.	.	.	.	.	.	.	.	.	.	.
*2\right	*	*	*	*	*	*	*	*	*	*	*	*	*	*	*	*	*	*	*	*	*	*	*	*	*	*	*
(2E\	.	.	.	.	.	.	.	.	.	.	.	.	.	.	.	.	.	.	.	.	.	.	.	.	.	.	.
2F\)	.	.	.	.	.	.	.	.	.	.	.	.	.	.	.	.	.	.	.	.	.	.	.	.	.	.	.
!LO:TX:t=P:problem:kreska pseudotaktowa	!	!	!	!	!	!	!	!	!	!	!	!	!	!	!	!	!	!	!	!	!LO:TX:t=P:problem:kreska pseudotaktowa	!	!	!	!	!	!
!	!	!	!	!	!	!	!LO:SIC:v:l:s=-vus:verse 5	!	!	!	!	!	!	!	!	!	!	!	!	!	!	!	!	!	!	!	!
1G	-ra	-tur	-te-	-us	-vus	il-	1d	-ra	-tur	-te-	-us	-uus	il-	1g	-ra	-tur	-te-	-us	-vus	il-	1B	-ra	-tur	-te-	-us	-vus	il-
=8-	=8-	=8-	=8-	=8-	=8-	=8-	=8-	=8-	=8-	=8-	=8-	=8-	=8-	=8-	=8-	=8-	=8-	=8-	=8-	=8-	=8-	=8-	=8-	=8-	=8-	=8-	=8-
0D	cor-	nil	-ra	es	lu-	-lu-	0f	Cor-	nil	-ra	es	lu-	-lu-	0a	cor-	nil	-ra	es	lu-	-lu-	0d	cor-	nil	-ra	es	lu-	-lu-
!	!	!	!	!	!	!	!LO:SIC:v:l:s=-dis:verse 1	!	!	!	!	!	!	!LO:SIC:v:l:s=-dis:verse 1	!	!	!	!	!	!	!	!	!	!	!	!	!
!LO:SIC:v:l:s=-dis:verse 1	!	!	!	!	!	!	!LO:TX:t=P:problem:kreska pseudotaktowa	!	!	!	!	!	!	!LO:TX:t=P:problem:kreska pseudotaktowa	!	!	!	!	!	!	!LO:SIC:v:l:s=-dis:verse 1	!	!	!	!	!	!
(2E\	-di-	iu-	ex-	pe-	-men	-ſtra	1e	-di	iu-	ex-	pe-	-men	-ſtra	1g	-di	iu-	ex-	pe-	-men	-ſtra	1c	-di	iu-	ex-	pe-	-men	-ſtra
!LO:TX:t=P:problem:kreska pseudotaktowa	!	!	!	!	!	!	!	!	!	!	!	!	!	!	!	!	!	!	!	!	!	!	!	!	!	!	!
2F\)	.	.	.	.	.	.	.	.	.	.	.	.	.	.	.	.	.	.	.	.	.	.	.	.	.	.	.
=9-	=9-	=9-	=9-	=9-	=9-	=9-	=9-	=9-	=9-	=9-	=9-	=9-	=9-	=9-	=9-	=9-	=9-	=9-	=9-	=9-	=9-	=9-	=9-	=9-	=9-	=9-	=9-
0G	-gau-	-cun-	-pri-	-ten-	men-	lu-	0d	gau-	-cun-	-pri-	-ten-	men-	lu-	0g	gau-	-cun-	-pri-	-ten-	men-	lu-	0c	gau-	-cun-	-pri-	-ten-	men-	lu-
!	!	!	!	!	!	!	!	!	!	!	!	!	!	!LO:TX:t=P:problem:kreska pseudotaktowa	!	!	!	!	!	!	!	!	!	!	!	!	!
1G	-di-	-di-	-me-	-ti-	-ti-	-mi-	1d	-di-	-di-	-me-	-ti-	-ti-	-mi-	1g	-di-	-di-	-me-	-ti-	-ti-	-mi-	1B	-di-	-di-	-me-	-ti-	-ti-	-mi-
=10-	=10-	=10-	=10-	=10-	=10-	=10-	=10-	=10-	=10-	=10-	=10-	=10-	=10-	=10-	=10-	=10-	=10-	=10-	=10-	=10-	=10-	=10-	=10-	=10-	=10-	=10-	=10-
!LO:TX:t=P:problem:kreska pseudotaktowa	!	!	!	!	!	!	!LO:TX:t=P:problem:kreska pseudotaktowa	!	!	!	!	!	!	!LO:TX:t=P:problem:kreska pseudotaktowa	!	!	!	!	!	!	!LO:TX:t=P:problem:kreska pseudotaktowa	!	!	!	!	!	!
0.C	-a	-us	-re	-bus	-um.	-ne	0.c	-a.	-us	-re	-bus	-um.	-ne	0.e	-a.	-us.	-re.	-bus	-um.	-ne	0.c	-a	-us	-re.	-bus.	-um	-ne
=11-	=11-	=11-	=11-	=11-	=11-	=11-	=11-	=11-	=11-	=11-	=11-	=11-	=11-	=11-	=11-	=11-	=11-	=11-	=11-	=11-	=11-	=11-	=11-	=11-	=11-	=11-	=11-
!	!	!	!	!	!	!	!LO:TX:t=P:problem:kreska pseudotaktowa	!	!	!	!	!	!	!	!	!	!	!	!	!	!LO:TX:t=P:problem:kreska pseudotaktowa	!	!	!	!	!	!
!LO:PB:g=original	!	!	!	!	!	!	!LO:PB:g=original	!	!	!	!	!	!	!	!	!	!	!	!	!	!LO:PB:g=original	!	!	!	!	!	!
0.C	Et	Nil	Ex-	Quam	Ex-	Pul-	0.e	Et	Nil	Ex-	Quam	Ex-	Pul-	0.g	Et	Nil	Ex-	Quam	Ex-	Pul-	0.c	Et	Nil	Ex-	Quam	Ex-	Pul-
=12-	=12-	=12-	=12-	=12-	=12-	=12-	=12-	=12-	=12-	=12-	=12-	=12-	=12-	=12-	=12-	=12-	=12-	=12-	=12-	=12-	=12-	=12-	=12-	=12-	=12-	=12-	=12-
0G	Su-	co-	-per-	bo-	-ce-	-ſa	0d	Su-	co-	-per-	bo-	-ce-	-ſa	0g	Su-	co-	-per-	bo-	-ce-	-ſa	0B	Su-	co-	-per-	bo-	-ce-	-ſa
!	!	!	!	!	!	!	!	!	!	!	!	!	!	!LO:TX:t=P:problem:kreska pseudotaktowa	!	!	!	!	!	!	!LO:TX:t=P:problem:kreska pseudotaktowa	!	!	!	!	!	!
1G	-per	-gi-	-tus	-nus	-dens	men-	1d	-per,	-gi-	-tus	-nus	-dens	men-	1g	-per	-gi-	-tus	-nus	-dens	men-	1B	-per	-gi-	-tus	-nus	-dens	men-
=13-	=13-	=13-	=13-	=13-	=13-	=13-	=13-	=13-	=13-	=13-	=13-	=13-	=13-	=13-	=13-	=13-	=13-	=13-	=13-	=13-	=13-	=13-	=13-	=13-	=13-	=13-	=13-
!LO:TX:t=P:problem:kreska pseudotaktowa	!	!	!	!	!	!	!LO:TX:t=P:problem:kreska pseudotaktowa	!	!	!	!	!	!	!	!	!	!	!	!	!	!	!	!	!	!	!	!
!	!	!	!	!	!	!	!	!	!	!	!	!	!	!LO:PB:g=original	!	!	!	!	!	!	!	!	!	!	!	!	!
0.A	mel	-ta-	po-	te	o-	-tis	0.c	mel	-ta-	po-	te	o-	-tis	1.e	mel	-ta-	po-	te	o-	-tis	1.A	mel	-ta-	po-	te	o-	-tis
.	.	.	.	.	.	.	.	.	.	.	.	.	.	2d\	.	.	.	.	.	.	2G/	.	.	.	.	.	.
!	!	!	!	!	!	!	!	!	!	!	!	!	!	!LO:TX:t=P:problem:kreska pseudotaktowa	!	!	!	!	!	!	!	!	!	!	!	!	!
.	.	.	.	.	.	.	.	.	.	.	.	.	.	1c	.	.	.	.	.	.	2E/	.	.	.	.	.	.
!	!	!	!	!	!	!	!	!	!	!	!	!	!	!	!	!	!	!	!	!	!LO:TX:t=P:problem:kreska pseudotaktowa	!	!	!	!	!	!
.	.	.	.	.	.	.	.	.	.	.	.	.	.	.	.	.	.	.	.	.	2F#X/	.	.	.	.	.	.
=14-	=14-	=14-	=14-	=14-	=14-	=14-	=14-	=14-	=14-	=14-	=14-	=14-	=14-	=14-	=14-	=14-	=14-	=14-	=14-	=14-	=14-	=14-	=14-	=14-	=14-	=14-	=14-
*	*	*	*	*	*	*	*	*	*	*	*	*	*	*	*	*	*	*	*	*	*col	*	*	*	*	*	*
(1G	et	-tur	-test	quae-	-mne	ca-	1B	et	-tur	-teſt	quae-	-mne	ca-	2d\	et	-tur	-test	quae-	-mne	ca-	1G	et	-tur	-test	quae-	-mne	ca-
.	.	.	.	.	.	.	.	.	.	.	.	.	.	2e\	.	.	.	.	.	.	.	.	.	.	.	.	.
1F	.	.	.	.	.	.	1c	.	.	.	.	.	.	1f	.	.	.	.	.	.	1A	.	.	.	.	.	.
!	!	!	!	!	!	!	!LO:TX:t=P:problem:kreska pseudotaktowa	!	!	!	!	!	!	!	!	!	!	!	!	!	!	!	!	!	!	!	!
1G)	.	.	.	.	.	.	1B	.	.	.	.	.	.	1d	.	.	.	.	.	.	0G	.	.	.	.	.	.
=15-	=15-	=15-	=15-	=15-	=15-	=15-	=15-	=15-	=15-	=15-	=15-	=15-	=15-	=15-	=15-	=15-	=15-	=15-	=15-	=15-	=15-	=15-	=15-	=15-	=15-	=15-	=15-
0D	o-	dul-	cre-	-ren-	gau-	-li-	0A	o-	dul-	cre-	-ren-	gau-	-li-	0d	o-	dul-	cre-	-ren-	gau-	-li-	.	.	.	.	.	.	.
.	.	.	.	.	.	.	.	.	.	.	.	.	.	.	.	.	.	.	.	.	1.F#X	o-	dul-	cre-	-ren-	gau-	-li-
!LO:TX:t=P:problem:kreska pseudotaktowa	!	!	!	!	!	!	!	!	!	!	!	!	!	!LO:TX:t=P:problem:kreska pseudotaktowa	!	!	!	!	!	!	!	!	!	!	!	!	!
1D	-mni-	-ci-	-de-	-ti-	-di-	-gi-	1A	-mni-	-ci-	-de-	-ti-	-di-	-gi-	1d	-mni-	-ci-	-de-	-ti-	-di-	-gi-	.	.	.	.	.	.	.
!	!	!	!	!	!	!	!	!	!	!	!	!	!	!	!	!	!	!	!	!	!LO:TX:b:t=P:problem:♯ below	!	!	!	!	!	!
.	.	.	.	.	.	.	.	.	.	.	.	.	.	.	.	.	.	.	.	.	2F#X/	-mni-	-ci-	-de-	-ti-	-di-	-gi-
*	*	*	*	*	*	*	*	*	*	*	*	*	*	*	*	*	*	*	*	*	*Xcol	*	*	*	*	*	*
=16-	=16-	=16-	=16-	=16-	=16-	=16-	=16-	=16-	=16-	=16-	=16-	=16-	=16-	=16-	=16-	=16-	=16-	=16-	=16-	=16-	=16-	=16-	=16-	=16-	=16-	=16-	=16-
0.GG	-a	-us	-re	-bus	-um	-ne	0G,<	-a	-us	-re	-bus	-um	-ne	0B,<	-a	-us	-re	-bus	-um	-ne	0G,<	-a	-us	-re	-bus.	-um	-ne
!	!	!	!	!	!	!	!LO:TX:t=P:problem:kreska pseudotaktowa	!	!	!	!	!	!	!	!	!	!	!	!	!	!LO:TX:t=P:problem:kreska pseudotaktowa	!	!	!	!	!	!
.	.	.	.	.	.	.	1G	E-	Quam	Quid	Sed	Et	Mun-	1d	E-	Quam	Quid	Sed	Et	Mun-	1B	E-	Quam	Quid	Sed	Et	Mun-
=17-	=17-	=17-	=17-	=17-	=17-	=17-	=17-	=17-	=17-	=17-	=17-	=17-	=17-	=17-	=17-	=17-	=17-	=17-	=17-	=17-	=17-	=17-	=17-	=17-	=17-	=17-	=17-
1rD	.	.	.	.	.	.	0c	-ius	Je-	ſit	quid	o-	-dum	0e	-ius	Je-	ſit	quid	o-	-dum	0G	-ius	Je-	ſit	quid	o-	-dum
1rD	.	.	.	.	.	.	.	.	.	.	.	.	.	.	.	.	.	.	.	.	.	.	.	.	.	.	.
!LO:TX:t=P:problem:kreska pseudotaktowa	!	!	!	!	!	!	!	!	!	!	!	!	!	!LO:TX:t=P:problem:kreska pseudotaktowa	!	!	!	!	!	!	!	!	!	!	!	!	!
1GG	e-	quam	quid	Sed	Et	Mun-	1B	dul-	-ſus	Je-	in-	-mne	re-	1d	dul-	-ſus	Je-	in-	-mne	re-	1G	dul-	-sus	Je-	in-	-mne	re-
=18-	=18-	=18-	=18-	=18-	=18-	=18-	=18-	=18-	=18-	=18-	=18-	=18-	=18-	=18-	=18-	=18-	=18-	=18-	=18-	=18-	=18-	=18-	=18-	=18-	=18-	=18-	=18-
!	!	!	!	!	!	!	!LO:SIC:v:l:s=-ve-:verse 4	!	!	!	!	!	!	!	!	!	!	!	!	!	!	!	!	!	!	!	!
0C	-ius	Je-	ſit	quid	o-	-dum	0c	-cis	De-	-ſum	-ue-	de-	-plens	2e\	-cis	De-	-ſum	-ve-	de-	-plens	0G	-cis	De-	-ſum	-ve-	de-	-plens
.	.	.	.	.	.	.	.	.	.	.	.	.	.	2d\	.	.	.	.	.	.	.	.	.	.	.	.	.
.	.	.	.	.	.	.	.	.	.	.	.	.	.	2e\	.	.	.	.	.	.	.	.	.	.	.	.	.
.	.	.	.	.	.	.	.	.	.	.	.	.	.	2f\	.	.	.	.	.	.	.	.	.	.	.	.	.
!	!	!	!	!	!	!	!LO:TX:t=P:problem:kreska pseudotaktowa	!	!	!	!	!	!	!LO:TX:t=P:problem:kreska pseudotaktowa	!	!	!	!	!	!	!LO:TX:t=P:problem:kreska pseudotaktowa	!	!	!	!	!	!
1BB	dul-	-ſus	Je-	in-	-mne	re-	1d	.	.	.	.	.	.	1g	.	.	.	.	.	.	1G	prae-	-i	di-	-nien-	-ſi-	dul-
=19-	=19-	=19-	=19-	=19-	=19-	=19-	=19-	=19-	=19-	=19-	=19-	=19-	=19-	=19-	=19-	=19-	=19-	=19-	=19-	=19-	=19-	=19-	=19-	=19-	=19-	=19-	=19-
2C/	-cis	De-	-ſum	-ve-	de-	-plens	1e	prae-	-i	di-	-nien-	-ſi-	dul-	1g	prae-	-i	di-	-nien-	-ſi-	dul-	0c	-sen-	Fi-	-li-	.	-de-	-ce-
2C/	prae-	-i	di-	-nien-	-ſi-	dul-	.	.	.	.	.	.	.	.	.	.	.	.	.	.	.	.	.	.	.	.	.
1.G	-ſen-	fi-	-li-	.	-de-	-ce-	1.d	-ſen-	Fi-	-li-	.	-de-	-ce-	1.g	-ſen-	Fi-	-li-	.	-de-	-ce-	.	.	.	.	.	.	.
.	.	.	.	.	.	.	.	.	.	.	.	.	.	.	.	.	.	.	.	.	1B	-ti-	-li-	-ge-	-ti-	-ri-	-di-
!LO:TX:t=P:problem:kreska pseudotaktowa	!	!	!	!	!	!	!	!	!	!	!	!	!	!	!	!	!	!	!	!	!	!	!	!	!	!	!
2G\	-ti-	-li-	-ge-	-ti-	-ri-	-di-	2d\	-ti-	-li-	-ge-	-ti-	-ri-	-di-	2g\	-ti-	-li-	-ge-	-ti-	-ri-	-di-	.	.	.	.	.	.	.
=20-	=20-	=20-	=20-	=20-	=20-	=20-	=20-	=20-	=20-	=20-	=20-	=20-	=20-	=20-	=20-	=20-	=20-	=20-	=20-	=20-	=20-	=20-	=20-	=20-	=20-	=20-	=20-
!LO:TX:t=P:problem:kreska pseudotaktowa	!	!	!	!	!	!	!LO:TX:t=P:problem:kreska pseudotaktowa	!	!	!	!	!	!	!LO:TX:t=P:problem:kreska pseudotaktowa	!	!	!	!	!	!	!LO:TX:t=P:problem:kreska pseudotaktowa	!	!	!	!	!	!
0.C	-a	-us	-re	-bus	-um	-ne	0.c	-a	-us	-re	-bus	-um	-ne	0.e	-a	-us	-re	-bus	-um	-ne	0.c,<	-a,	-us	-re	-bus,	-um	-ne,
=21-	=21-	=21-	=21-	=21-	=21-	=21-	=21-	=21-	=21-	=21-	=21-	=21-	=21-	=21-	=21-	=21-	=21-	=21-	=21-	=21-	=21-	=21-	=21-	=21-	=21-	=21-	=21-
1.C	dul-	Je-	Je-	in-	o-	re-	0.c	dul-	De-	Je-	in-	de-	re-	1.e	dul-	De-	Je-	in-	o-	re-	0G	dul-	Je-	Je-	quid	o-	re-
2D/	.	.	.	.	.	.	.	.	.	.	.	.	.	2f\	.	.	.	.	.	.	.	.	.	.	.	.	.
!	!	!	!	!	!	!	!	!	!	!	!	!	!	!	!	!	!	!	!	!	!LO:TX:t=P:problem:kreska pseudotaktowa	!	!	!	!	!	!
2E\	.	-ſus	.	.	-mne	.	.	.	.	.	.	.	.	2g\	.	.	.	.	.	.	1G	-cis	-sus	-ſum	in-	-mne	-plens
!	!	!	!	!	!	!	!	!	!	!	!	!	!	!LO:TX:t=P:problem:kreska pseudotaktowa	!	!	!	!	!	!	!	!	!	!	!	!	!
2C/	.	.	.	.	.	.	.	.	.	.	.	.	.	2e\	.	.	.	.	.	.	.	.	.	.	.	.	.
=22-	=22-	=22-	=22-	=22-	=22-	=22-	=22-	=22-	=22-	=22-	=22-	=22-	=22-	=22-	=22-	=22-	=22-	=22-	=22-	=22-	=22-	=22-	=22-	=22-	=22-	=22-	=22-
0F	-cis	De-	-ſum	-ve-	de-	-plens	0A	-cis	.	-ſum	-ve-	.	-plens	1f	.	.	.	.	-mne	.	2A/	prae-	De-	di-	-ve-	de-	dul-
.	.	.	.	.	.	.	.	.	.	.	.	.	.	.	.	.	.	.	.	.	2G/	.	.	.	.	.	.
.	.	.	.	.	.	.	.	.	.	.	.	.	.	1f	-cis	-i	-ſum	-ve-	de-	-plens	2A/	.	.	.	.	.	.
.	.	.	.	.	.	.	.	.	.	.	.	.	.	.	.	.	.	.	.	.	2B\	.	.	.	.	.	.
!LO:TX:t=P:problem:kreska pseudotaktowa	!	!	!	!	!	!	!LO:TX:t=P:problem:kreska pseudotaktowa	!	!	!	!	!	!	!	!	!	!	!	!	!	!	!	!	!	!	!	!
*	*	*	*	*	*	*	*	*	*	*	*	*	*	*	*	*	*	*	*	*	*col	*	*	*	*	*	*
1F	prae-	-i	di-	-nien-	-ſi-	dul-	1A	prae-	-i	di-	-nien-	-ſi-	dul-	1f	prae-	Fi-	di-	-nien-	-ſi-	dul-	0c	.	-i	.	.	-ſi-	.
=23-	=23-	=23-	=23-	=23-	=23-	=23-	=23-	=23-	=23-	=23-	=23-	=23-	=23-	=23-	=23-	=23-	=23-	=23-	=23-	=23-	=23-	=23-	=23-	=23-	=23-	=23-	=23-
0G	-ſen-	Fi-	-li-	.	-de-	-ce-	0G	-ſen-	Fi-	-li-	.	-de-	-ce-	0d	-ſen-	.	-li-	.	-de-	-ce-	.	.	.	.	.	.	.
.	.	.	.	.	.	.	.	.	.	.	.	.	.	.	.	.	.	.	.	.	1.B	-ſen-	Fi-	-li-	-nien-	-de-	-ce-
1G	-ti-	-li-	-ge-	-ti-	-ri-	-di-	1G	-ti-	-li-	-ge-	-ti-	-ri-	-di-	1d	-ti-	-li-	-ge-	-ti-	-ri-	-di-	.	.	.	.	.	.	.
.	.	.	.	.	.	.	.	.	.	.	.	.	.	.	.	.	.	.	.	.	2B\	-ti-	-li-	-ge-	-ti-	-ri-	-di-
*	*	*	*	*	*	*	*	*	*	*	*	*	*	*	*	*	*	*	*	*	*Xcol	*	*	*	*	*	*
=24-	=24-	=24-	=24-	=24-	=24-	=24-	=24-	=24-	=24-	=24-	=24-	=24-	=24-	=24-	=24-	=24-	=24-	=24-	=24-	=24-	=24-	=24-	=24-	=24-	=24-	=24-	=24-
!LO:TX:a:t=M M P R. 1668 \n3 Junij.	!	!	!	!	!	!	!	!	!	!	!	!	!	!LO:TX:b:t=A. M. D. G.	!	!	!	!	!	!	!	!	!	!	!	!	!
0.C;>	-a.	-us.	-re.	-bus.	-um.	-ne.	0.G;>	-a.	-us.	-re.	-bus.	-um.	-ne.	0.e;<	-a.	-us.	-re.	-bus.	-um.	-ne..	0.c;;	-a.	-us.	-re.	-bus.	-um.	-ne.
=||	=-	=-	=-	=-	=-	=-	=||	=-	=-	=-	=-	=-	=-	=||	=-	=-	=-	=-	=-	=-	=||	=-	=-	=-	=-	=-	=-
*-	*-	*-	*-	*-	*-	*-	*-	*-	*-	*-	*-	*-	*-	*-	*-	*-	*-	*-	*-	*-	*-	*-	*-	*-	*-	*-	*-
!!!system-decoration: [(s1,s2,s3,s4)]
!!!ENC: Marta Chmielewska
!!!END: 2021-03-22
!!!RDF**kern: < = below
!!!RDF**kern: > = above
!!!ENC: Andrzej Borzym
!!!END: 2021-03-05
